X:1
T:Marvel Not
T:Marvel Not
T:G. A. Box
T:Mary Florence Elrod-Norris, 1913
T:Public Domain Courtesy of the Cyber Hymnal™
T:Public Domain Courtesy of the Cyber Hymnal™
C:G. A. Box
Z:Public Domain
Z:Courtesy of the Cyber Hymnal™
%%score ( 1 2 ) ( 3 4 )
L:1/8
Q:1/4=95
M:4/4
K:Bb
V:1 treble 
V:2 treble 
V:3 bass 
V:4 bass 
V:1
 FF | B4- [DB][DF][FB][Fc] | [Fd] ([Bf-] f4) FF | B4- [=EB][EB][EA][EB] | c6 FF | %5
w: 1.~Mar- vel|not when friends for- sake|* you, * For the|world is ev- er vain;|* On- ly|
w: 2.~Mar- vel|not, oh! un- be- liev-|* er, * If your|way is rough and bare;|* Mar- vel|
w: 3.~Mar- vel|not that Sa- tan’s pow-|* er * Can al-|lure a soul to strife;|* Keep your|
 B4- [DB][DF][FB][Fc] | [Fd] ([Bf-] f4) dB | F4- [DF][DF][Ec][EA] | B6 ||"^Refrain" z2 | %10
w: seek- ing sin- ful plea-|* sures * And the|joys of earth- ly gain.|||
w: not, for with- out Je-|* sus, * You no|ho- ly joys shall share.|||
w: own heart fixed on Je-|* sus, * And you’ll|win e- ter- nal life.|||
 z2 [Ac][Ac] [Bd] z3 | z [Bd][Ge][Ge] [Fd][Fd] z2 | z2 [=Ec][Ec] [Ec][Ed][Fc][GB] | %13
w: Mar- vel not|what- e’er be- fall you,|~ ~ ~ ~ ~ ~|
w: |||
w: |||
 [FA][FA][=EG][EG] [FA]2 z2 | z2 [Ae][Ae] [Ae] z3 | z [Bd][Ge][Ge] [Fd][Fd] z2 | %16
w: ~ yes, all the way;|For one day|He’ll bear you safe- ly|
w: |||
w: |||
 z2 [Fc][Fc] [Fc][Ff][Ff][Fe] | [Fd][Ec][DB][Ec] [DB]2 |] %18
w: ~ ~ ~ ~ ~ ~|~ of bright- est day.|
w: ||
w: ||
V:2
 x2 | D2 D2 x4 | x2 (AA BB) x2 | D2 D2 x4 | (FFFF F2) x2 | D2 D2 x4 | x2 (AA BB) x2 | D2 D2 x4 | %8
 (DFGG F2) || x2 | x8 | x8 | x8 | x8 | x8 | x8 | x8 | x6 |] %18
V:3
 z2 | ([B,,F,]2 [B,,F,]2 [B,,F,])[B,,B,][D,B,][F,A,] | B, ([B,D][F,C][F,C][B,D][B,D]) z2 | %3
w: |~ * * ~ ~ ~|~ ~ * * * *|
 ([G,B,]2 [G,B,]2 [C,G,])[C,G,][C,C][C,B,] | ([F,A,][F,A,][F,A,][F,A,] [F,A,]2) z2 | %5
w: ~ * * ~ ~ ~|~ * * * *|
 ([B,,F,]2 [B,,F,]2 [B,,F,])[B,,B,][D,B,][F,A,] | B, ([B,D][F,C][F,C][B,D][B,D]) z2 | %7
w: ~ * * ~ ~ ~|~ ~ * * * *|
 ([B,,B,]2 [D,B,]2 [F,B,])[F,B,][F,A,][F,C] | (B,DEE D2) || B,D | (z2 [B,F])F =EF x2 | %11
w: ~ * * ~ ~ ~|~ * * * *|Mar- vel|* not, what- e’er|
 E([G,B,-] B,4) DB, | (z2 [C,G,])[C,B,] [D,A,][=E,G,] x2 | C6 DD | (z2 [F,C])E x4 | %15
w: * be- * fall you,|* Trust the Sav-|* ior all|* the|
 D([G,B,] B,4) G,G, | (z2 [F,A,])[F,A,] [F,D][F,C] x2 | B,4- [B,,B,]2 |] %18
w: way; * * For one|* day He’ll bear||
V:4
 x2 | x8 | B, x7 | x8 | x8 | x8 | B, x7 | x8 | B,,6 || x2 | F4- F, F, x2 | x2 (E,E, B,,B,,) x2 | %12
 G,4- C, C, x2 | (F,F,C,C, F,2) x2 | (C4- F, F, C)D | x2 (E,E, B,,B,,) x2 | A,4 F, F, x2 | %17
 B,,F,G,F, x2 |] %18

